X:1
T:Title
%%score { ( 1 3 ) | ( 2 4 ) }
L:1/8
Q:1/4=90
M:4/4
K:Ab
V:1 treble nm="Grand Piano"
V:3 treble 
V:2 bass 
V:4 bass 
V:1
 [CE]2 [Ec]>[=D_c] [E=c][EG][EA][Ec] | BAGF [CE]4 | [EA]Bcd eecB | z4 B4 | %4
w: Chas.~H.~Gabriel * * * * * *||||
 [CE]2 [Ec]>[=D_c] [E=c][EG][EA][Ec] | BAGF [CE]4 | [Ee][Ec][EB][EA] FGAB | c2 B>B [CA]4 | %8
w: ||||
 B2 B>=A BG_AB | [Ec]2 [Ec]>[=D_c] [E=c]ABc | [Ed]2[K:bass] [Ec]2[K:treble] [FB]2 [FA]2 | %11
w: |||
 G2 A2 B4 | [Ec]2 [Ec]>[=D_c] [E=c][CA][Ed][Ec] | [FB][FA][EG][DF] [CE]4 | [Ee][Ec][EB][EA] FGAB | %15
w: ||||
[M:8/4] c2 B>B [CA]4 z8 |] %16
w: |
V:2
 [A,,A,]2 [A,,A,]>[A,,A,] [A,,A,][B,,E,][C,A,][A,,A,] | [D,F,D][D,F,D][D,F,D][D,A,D] [A,,A,]4 | %2
 [C,A,][E,G,E][A,E][A,B,E] [A,CE][A,CE][A,E][E,G,D] | z4 E2 z2 | %4
 [A,,A,]2 [A,,A,]>[A,,A,] [A,,A,][B,,E,][C,A,][A,,A,] | [D,F,D][D,F,D][D,F,D][D,A,D] [A,,A,]4 | %6
 [C,A,][A,,A,][B,,G,][C,A,] [D,A,D][E,D][F,A,D][=E,A,D] | [E,A,E]2 [E,G,D]>[E,G,D] [A,,A,]4 | %8
 [E,G,D]2 [E,G,D]>[E,_G,C] [E,=G,D]DCD | [A,,A,]2 [A,,A,]>[A,,A,] [A,,A,]CDE | %10
 .[B,,G,]2 .[C,A,]2 [D,A,]D,=D,D, | [E,B,E]2 [F,B,=D]2 [E,G,_D]4 | %12
 [A,,A,]2 [A,,A,]>[A,,A,] [A,,A,][A,,A,][B,,G,][C,A,] | [D,D][D,D][D,D][D,A,] [A,,A,]4 | %14
 [C,A,][A,,A,][B,,G,][C,A,] [D,A,D][E,D][F,A,D][=E,A,D] | %15
[M:8/4] [E,A,E]2 [E,G,D]>[E,G,D] [A,,A,]4 z8 |] %16
V:3
 x8 | x8 | x8 | AA[=DB][Dc] z2 _D2 | x8 | x8 | x8 | x8 | x8 | x8 | %10
 z[K:bass] [B,,G,] z [C,A,][K:treble] z A,B,B, | x8 | x8 | x8 | x8 |[M:8/4] x16 |] %16
V:4
 x8 | x8 | x8 | [F,A,C][F,A,C][B,,A,][B,,A,] [E,G,]4 | x8 | x8 | x8 | x8 | x8 | x8 | x8 | x8 | x8 | %13
 x8 | x8 |[M:8/4] x16 |] %16

